X:1
T:In Memoriam
T:In Memoriam
T:Courtesy of the Cyber Hymnal (http://www.cyberhymnal.org)
T:Courtesy of the Cyber Hymnal (http://www.cyberhymnal.org)
Z:Courtesy of the Cyber Hymnal (http://www.cyberhymnal.org)
%%score { ( 1 2 ) ( 3 4 ) }
L:1/8
Q:1/4=115
M:3/8
K:Eb
V:1 treble nm="P1"
V:2 treble 
V:3 bass nm="P2"
V:4 bass 
V:1
"^Editor: John Henry Fowler""^( Revision: 11-30-2007 )" G2 G |[M:6/8] A2 G F2 G | E3 E2 F | %3
 G2 A"^( 1885 )" (BG)c | B3 z2 B | e2 d c2 d | e3 B2"^John Stainer" B | %7
"^( 1840 - 1901 )" c2 B (BA)G | F3 F3 | F2 =E F2 G | A3 A2 E | E2 D E2 F | G3 B3 | e2 e d2 d | %14
 c3 B2 A | GAB G2 F |[M:3/8] E3 |] %17
V:2
 E2 E |[M:6/8] E2 D C2 D | E3 E2 D | E2 D E2 E | E3 x2 D | E2 E E2 F | E3 E2 E | E2 E F2 E | %8
 D3 D3 | C2 C D2 =E | F3 F2 E | E2 B, C2 D | E3 F3 | E2 E E2 E | E3 E2 D | (EF)G E2 D | %16
[M:3/8] E3 |] %17
V:3
 B,2 B, |[M:6/8] A,2 B, C2 A, | G,2 C B,2 A, | B,2 B, B,2 A, | G,3 z2 A, | B,2 B, C2 B, | %6
 B,3 B,2 B, | A,2 B, B,2 B, | %8
 B,3"^1.There’s a Friend for little childrenAbove the bright blue sky,A Friend who never changes,Whose love will never die;Our earthly friends may fail us,And change with changing years,This Friend is always worthyOf that dear Name He bears.             2.There’s a rest for little childrenAbove the bright blue sky,Who love the blessèd Savior,And to the Father cryA rest from every turmoil,From sin and sorrow free,Where every little pilgrimShall rest eternally.             3.There’s a home for little childrenAbove the bright blue sky,Where Jesus reigns in glory,A home of peace and joyNo home on earth is like it,Nor can with it compare;For everyone is happyNor could be happier there." B,3 | %9
 C2 C C2 B, | C3 C2 C | B,2 B, B,2 A, | G,3 F,3 | %13
 G,2"^4.There’s a crown for little childrenAbove the bright blue sky,And all who look for JesusShall wear it by and by;A crown of brightest glory,Which He will then bestowOn those who found his favorAnd loved His Name below.             5.There’s a song for little childrenAbove the bright blue sky,A song that will not weary,Though sung continually;A song which even angelsCan never, never singThey know not Christ as Savior,But worship Him as King.             6.There’s a robe for little childrenAbove the bright blue sky,And a harp of sweetest music,And palms of victory.All, all above is treasured,And found in Christ alone:O come, dear little childrenThat all may be your own." G, G,2 G, | %14
 A,3 B,2 B, | B,2 B, B,2 A, |[M:3/8] [E,G,]3 |] %17
V:4
 E,2 D, |[M:6/8] C,2 B,, A,,2 B,, | E,2 A, G,2 F, | E,2 F, G,2 A, | E,3 x2 F, | G,2 G, A,2 A, | %6
 G,3 G,2 G, | A,2 G, D,2 E, | B,,3 B,3 | A,2 B, A,2 G, | F,3 F,2 A, | G,2 A, G,2 F, | E,3 D,3 | %13
 C,2 C, B,,2 B,, | A,,2 A, G,2 F, | E,2 G,, B,,2 B,, |[M:3/8] x3 |] %17

